hdr-off.svg

<svg fill="currentColor" viewBox="0 0 24 24"><path d="M17.5 15v-2h1.1l.9 2H21l-.9-2.1c.5-.2.9-.8.9-1.4v-1c0-.8-.7-1.5-1.5-1.5H16v4.9l1.1 1.1zm0-4.5h2v1h-2zm-4.5 0v.4l1.5 1.5v-1.9c0-.8-.7-1.5-1.5-1.5h-1.9l1.5 1.5zm-3.5-1-7-7-1.1 1L6.9 9h-.4v2h-2V9H3v6h1.5v-2.5h2V15H8v-4.9l1.5 1.5V15h3.4l7.6 7.6 1.1-1.1z"/></svg>

<svg  viewBox="0 0 24 24" fill="currentColor"><path  d="M17.5,15V13H18.6L19.5,15H21L20.1,12.9C20.6,12.7 21,12.1 21,11.5V10.5C21,9.7 20.3,9 19.5,9H16V13.9L17.1,15H17.5M17.5,10.5H19.5V11.5H17.5V10.5M13,10.5V10.9L14.5,12.4V10.5C14.5,9.7 13.8,9 13,9H11.1L12.6,10.5H13M9.5,9.5L2.5,2.5L1.4,3.5L6.9,9H6.5V11H4.5V9H3V15H4.5V12.5H6.5V15H8V10.1L9.5,11.6V15H12.9L20.5,22.6L21.6,21.5L9.5,9.5Z"/></svg>
